X:1
T:G Major Daniel Belknap, 1802
T:Isaac Watts, 1707 (Hymn 100, Book 1)     88. 88. (L. M.)
T:Spring Street
T:Transcribed from The Village Compilation, 1806.
%%score [ 1 2 3 ]
L:1/8
Q:1/4=120
M:4/4
K:G
V:1 treble nm="Treble" snm="Tr."
V:2 treble-8 nm="Tenor" snm="T."
V:3 bass nm="Bass" snm="B."
V:1
 G8 | d2 d2 d2 d2 | c2 Ac B2 G2 | B2 d2 d2 c2 | B2 A2 A4- | A4 G4 | B2 c2 d2 B2 | c2 c2 c2 BA | %8
w: 1.~Not|to con- demn the|sons of * men, Did|Christ, the Son of|God, ap- pear;~|_ No|wea- pons in his|hand are seen, No *|
 (B3 c d2) g2 | d2 de d2 c2 | B8 |: z4 d4 | d2 B2 B2 g2 | d2 c2 B2 G2 | d3 e d2 c2 | B4 G4 | %16
w: fla- * * ming|sword nor * thun- der|there.|Such|was the pi- ty|of our God, He|loved the race of|men so|
 A6 B2 | B2 d2 d2 cB | cB AG e2 dc | B3 c d2 g2 | d4 c4 | B8 :| %22
w: well, He|sent his Son to *|bear * our * load Of *|sins, and save our|souls from|hell.|
V:2
 G8 | B2 A2 B2 d2 | e2 ce d2 c2 | g2 g2 gf e2 | d2 ^c2 d4- | d4 B4 | g2 c2 B2 gf | e2 e2 e2 dB | %8
w: 2.~Sin-|ners, be- lieve the|Sa- vior's * word, Trust|in his migh- * ty|name and live;~|_ A|thou- sand joys his *|lips af- ford, His *|
 (d3 e d2) B2 | g2 ec B2 A2 | G8 |:"^But         ven – geance and  dam – na – tion  lies  On" z8 | %12
w: hands~ _ _ a|thou- sand * bles- sings|give.||
 z8 | z8 |"^re – bels  who re  –  fuse  the      grace;" z8 | z8 | z4 z2 B2 | d2 B2 g2 ed | %18
w: ||||Who|God's e- ter- nal *|
 ed cB c2 BG | d3 e d2 c2 | B4 A4 | G8 :| %22
w: Son * de- * spise, The *|hot- test hell shall|be their|place.|
V:3
 G,8 | G,2 D,2 F,2 B,2 | C2 C2 B,2 A,2 | G,2 G,2 G,2 F,2 | G,2 A,2 D,4- | D,4 G,4 | %6
w: ||||||
 G,2 F,2 G,2 G,2 | A,2 A,2 A,2 B,A, | G,6 G,A, | B,2 C2 D2 D,2 | G,8 |: z4 G,4 | G,2 G,2 G,2 C2 | %13
w: |||||But|ven- geance and dam-|
 B,2 A,2 G,2 G,2 | B,3 C B,2 A,2 | G,4 E,4 | D,6 D,2 | G,2 G,2 G,2 CB, | A,2 A,2 A,2 B,A, | %19
w: na- tion lies on|re- bels who re-|fuse the|grace, *|||
 G,3 A, B,2 C2 | %20
w: |
"^__________________________________________________\nEdited by B. C. Johnston, 2016\nMeasure 3, Tenor: Quarter-note on fourth beat changed from B to C." D4 D,4 | %21
w: |
 [G,,G,]8 :| %22
w: |

